src/dsmComponents/Icons/trash-delete-16px.svg

<svg width="16" height="16" xmlns="http://www.w3.org/2000/svg" xmlns:xlink="http://www.w3.org/1999/xlink"><defs><path d="M12 3V1c0-.6-.4-1-1-1H5c-.6 0-1 .4-1 1v2H0v2h16V3h-4zm2 3v8c0 1.1-.9 2-2 2H4c-1.1 0-2-.9-2-2V6h12zm-4-4v1H6V2h4z" id="trash-delete-16px_svg__a"/></defs><use fill="#737373" xlink:href="#trash-delete-16px_svg__a" fill-rule="evenodd"/></svg>

<?xml version="1.0" encoding="UTF-8"?>
<svg width="16px" height="16px" viewBox="0 0 16 16" version="1.1" xmlns="http://www.w3.org/2000/svg" xmlns:xlink="http://www.w3.org/1999/xlink">
    <!-- Generator: Sketch 59.1 (86144) - https://sketch.com -->
    <title>trash-delete-16px</title>
    <desc>Created with Sketch.</desc>
    <defs>
        <path d="M12,3 L12,1 C12,0.4 11.6,0 11,0 L5,0 C4.4,0 4,0.4 4,1 L4,3 L0,3 L0,5 L16,5 L16,3 L12,3 Z M14,6 L14,14 C14,15.1 13.1,16 12,16 L12,16 L4,16 C2.9,16 2,15.1 2,14 L2,14 L2,6 L14,6 Z M10,2 L10,3 L6,3 L6,2 L10,2 Z" id="path-1"></path>
    </defs>
    <g id="Final" stroke="none" stroke-width="1" fill="none" fill-rule="evenodd">
        <g id="All-Nucleo-Icons" transform="translate(-319.000000, -6807.000000)">
            <g id="Solo/Nucleo/16px/trash-delete" transform="translate(315.000000, 6803.000000)">
                <g id="trash" transform="translate(4.000000, 4.000000)">
                    <g id="Colour/Default-Colour">
                        <mask id="mask-2" fill="white">
                            <use xlink:href="#path-1"></use>
                        </mask>
                        <g id="Mask" fill-rule="nonzero"></g>
                        <g id="colour/neutral/chia" mask="url(#mask-2)" fill="#737373">
                            <g transform="translate(-24.000000, -25.000000)" id="Colour">
                                <rect x="0" y="0" width="64" height="64"></rect>
                            </g>
                        </g>
                    </g>
                </g>
            </g>
        </g>
    </g>
</svg>
